svg/aws-ec2-p2.svg

<?xml version="1.0" encoding="UTF-8"?>
<svg xmlns="http://www.w3.org/2000/svg" xmlns:xlink="http://www.w3.org/1999/xlink" width="32" height="32" viewBox="0 0 32 32">
<path fill-rule="evenodd" fill="rgb(83.137255%, 35.686275%, 2.745098%)" fill-opacity="1" d="M 20.929688 19.214844 L 16.542969 19.214844 L 16.542969 18.375 C 17.191406 17.722656 17.824219 17.054688 18.4375 16.371094 C 18.839844 15.902344 19.121094 15.527344 19.273438 15.238281 C 19.429688 14.953125 19.507812 14.6875 19.507812 14.449219 C 19.507812 14.160156 19.425781 13.9375 19.257812 13.78125 C 19.089844 13.621094 18.851562 13.542969 18.546875 13.542969 C 18.28125 13.542969 17.988281 13.601562 17.675781 13.722656 C 17.335938 13.855469 17.015625 14.03125 16.71875 14.242188 L 16.71875 13.328125 C 17.3125 12.839844 17.96875 12.597656 18.6875 12.597656 C 19.078125 12.597656 19.417969 12.667969 19.710938 12.808594 C 20 12.949219 20.226562 13.148438 20.390625 13.410156 C 20.554688 13.671875 20.636719 13.984375 20.636719 14.34375 C 20.636719 14.691406 20.542969 15.046875 20.351562 15.402344 C 20.160156 15.761719 19.851562 16.167969 19.425781 16.625 C 19.003906 17.082031 18.414062 17.652344 17.671875 18.328125 L 20.929688 18.328125 Z M 12.210938 13.625 L 13.351562 13.625 C 13.703125 13.625 13.96875 13.722656 14.144531 13.914062 C 14.324219 14.109375 14.414062 14.390625 14.414062 14.765625 C 14.414062 15.136719 14.324219 15.421875 14.144531 15.613281 C 13.96875 15.808594 13.703125 15.902344 13.351562 15.902344 L 12.210938 15.902344 Z M 12.210938 16.78125 L 13.488281 16.78125 C 14.128906 16.78125 14.636719 16.597656 15.011719 16.238281 C 15.382812 15.878906 15.570312 15.386719 15.570312 14.765625 C 15.570312 14.140625 15.382812 13.648438 15.007812 13.289062 C 14.628906 12.929688 14.117188 12.746094 13.46875 12.746094 L 11.074219 12.746094 L 11.074219 19.214844 L 12.210938 19.214844 Z M 6 26 L 26 26 L 26 6 L 6 6 Z M 30.667969 8.667969 L 30.667969 7.332031 L 27.332031 7.332031 L 27.332031 5.332031 C 27.332031 4.964844 27.035156 4.667969 26.667969 4.667969 L 24.667969 4.667969 L 24.667969 1.332031 L 23.332031 1.332031 L 23.332031 4.667969 L 20.667969 4.667969 L 20.667969 1.332031 L 19.332031 1.332031 L 19.332031 4.667969 L 16.667969 4.667969 L 16.667969 1.332031 L 15.332031 1.332031 L 15.332031 4.667969 L 12.667969 4.667969 L 12.667969 1.332031 L 11.332031 1.332031 L 11.332031 4.667969 L 8.667969 4.667969 L 8.667969 1.332031 L 7.332031 1.332031 L 7.332031 4.667969 L 5.332031 4.667969 C 4.964844 4.667969 4.667969 4.964844 4.667969 5.332031 L 4.667969 7.332031 L 1.332031 7.332031 L 1.332031 8.667969 L 4.667969 8.667969 L 4.667969 11.332031 L 1.332031 11.332031 L 1.332031 12.667969 L 4.667969 12.667969 L 4.667969 15.332031 L 1.332031 15.332031 L 1.332031 16.667969 L 4.667969 16.667969 L 4.667969 19.332031 L 1.332031 19.332031 L 1.332031 20.667969 L 4.667969 20.667969 L 4.667969 23.332031 L 1.332031 23.332031 L 1.332031 24.667969 L 4.667969 24.667969 L 4.667969 26.667969 C 4.667969 27.035156 4.964844 27.332031 5.332031 27.332031 L 7.332031 27.332031 L 7.332031 30.667969 L 8.667969 30.667969 L 8.667969 27.332031 L 11.332031 27.332031 L 11.332031 30.667969 L 12.667969 30.667969 L 12.667969 27.332031 L 15.332031 27.332031 L 15.332031 30.667969 L 16.667969 30.667969 L 16.667969 27.332031 L 19.332031 27.332031 L 19.332031 30.667969 L 20.667969 30.667969 L 20.667969 27.332031 L 23.332031 27.332031 L 23.332031 30.667969 L 24.667969 30.667969 L 24.667969 27.332031 L 26.667969 27.332031 C 27.035156 27.332031 27.332031 27.035156 27.332031 26.667969 L 27.332031 24.667969 L 30.667969 24.667969 L 30.667969 23.332031 L 27.332031 23.332031 L 27.332031 20.667969 L 30.667969 20.667969 L 30.667969 19.332031 L 27.332031 19.332031 L 27.332031 16.667969 L 30.667969 16.667969 L 30.667969 15.332031 L 27.332031 15.332031 L 27.332031 12.667969 L 30.667969 12.667969 L 30.667969 11.332031 L 27.332031 11.332031 L 27.332031 8.667969 Z M 30.667969 8.667969 "/>
</svg>

<svg role="img" viewBox="0 0 32 32" height="32" width="32" xmlns="http://www.w3.org/2000/svg"><path d="M20.93 19.215h-4.387v-.84a53.927 53.927 0 0 0 1.895-2.004c.402-.469.683-.844.835-1.133.157-.285.235-.55.235-.789 0-.289-.082-.511-.25-.668-.168-.16-.406-.238-.711-.238-.266 0-.559.059-.871.18a4.45 4.45 0 0 0-.957.52v-.915c.593-.488 1.25-.73 1.968-.73.391 0 .731.07 1.024.21.289.141.516.34.68.602.164.262.246.574.246.934 0 .347-.094.703-.285 1.058-.192.36-.5.766-.926 1.223-.422.457-1.012 1.027-1.754 1.703h3.258Zm-8.72-5.59h1.142c.351 0 .617.098.793.29.18.194.27.476.27.85 0 .372-.09.657-.27.848-.176.196-.442.29-.793.29H12.21Zm0 3.156h1.278c.64 0 1.149-.183 1.524-.543.37-.36.558-.851.558-1.472 0-.625-.187-1.118-.562-1.477-.38-.36-.89-.543-1.54-.543h-2.394v6.469h1.137ZM6 26h20V6H6ZM30.668 8.668V7.332h-3.336v-2a.664.664 0 0 0-.664-.664h-2V1.332h-1.336v3.336h-2.664V1.332h-1.336v3.336h-2.664V1.332h-1.336v3.336h-2.664V1.332h-1.336v3.336H8.668V1.332H7.332v3.336h-2a.664.664 0 0 0-.664.664v2H1.332v1.336h3.336v2.664H1.332v1.336h3.336v2.664H1.332v1.336h3.336v2.664H1.332v1.336h3.336v2.664H1.332v1.336h3.336v2c0 .367.297.664.664.664h2v3.336h1.336v-3.336h2.664v3.336h1.336v-3.336h2.664v3.336h1.336v-3.336h2.664v3.336h1.336v-3.336h2.664v3.336h1.336v-3.336h2a.664.664 0 0 0 .664-.664v-2h3.336v-1.336h-3.336v-2.664h3.336v-1.336h-3.336v-2.664h3.336v-1.336h-3.336v-2.664h3.336v-1.336h-3.336V8.668Zm0 0" fill="rgb(83.137255%, 35.686275%, 2.745098%)" fill-rule="evenodd"/></svg>
